X:1
T:Title
%%score ( 1 2 ) 3
L:1/8
Q:1/4=80
M:4/4
K:Eb
V:1 treble nm="Strings 1, Soprano"
V:2 treble 
V:3 bass nm="Strings 1, Bass"
V:1
 z4 z2 z B, | [B,E]2 [B,E][EG] [GB]2 [EG][EB] | [Ec]2 [Ee][Ee] [EB]3 [EG] | %3
w: 1.~Lo,~|heav en~ now~ o pens~ to~|rap tur ous~ view;~ The~|
 [B,E]2 [B,E][EG] [GB]2 [EG][GB] | .c2 z2 z4 | [B,E]2 [B,E][EG] [GB]2 [EG][GB] | %6
w: ar mies~ that~ fol low~ the~|Faith|rayed~ in~ fine~ lin en~ and~|
 [Ec]2 [Ee][Ee] [EB]3 [EB] | [Ac]2 [Ac]>[Ac] [Ac][GB][EG][EB] | .B2 z2 z4 | %9
w: ar mor~ of~ light,~ With~|swords~ of~ de struc * tion~ the~|na|
 [Ge]2 [Ge]>[Ge] [Ge]3 [Bd] | [Ac]2 [Ae]>[Ac] [GB]3 [GB] | [Ac]2 [Ac]>[Ac] [Ac]3 [Ac] | %12
w: |||
 [Ac][GB] [GB]>[EG] [GB]3 [GB] | [Ge][Ge] [Ge]2 [Ge]2 [Ee][Ed] | [Ec][Ed] [Ee]2 [EB]3 [GB] | %15
w: |||
 [Ac]2 [Ac]>[Ac] [Ac] [GB]2 [EG] | [EB][DA] [DF]2 E4 |] %17
w: ||
V:2
 x8 | x8 | x8 | x8 | G-[GB][EG]E [DF]3 [DG] | x8 | x8 | x8 | D-[DA] [DF]>[EG] E3 [GB] | x8 | x8 | %11
w: ||||* * * and~ * Ar||||* * * to~ * *|||
 x8 | x8 | x8 | x8 | x8 | x8 |] %17
w: ||||||
V:3
 z4 z2 z [E,G,] | [E,G,]2 [E,G,][E,B,] [E,E]2 [E,B,][E,G,] | [A,,A,]2 [A,,C][C,A,] [E,G,]3 [E,B,] | %3
 [E,G,]2 [E,G,][E,B,] [E,E]2 [E,B,][E,E] | [E,E]2 [E,B,][C,=A,] [B,,B,]3 [B,,B,] | %5
 [E,G,]2 [E,G,][E,B,] [E,E]2 [E,B,][E,B,] | [A,,A,]2 [A,,C][C,A,] [E,G,]3 [E,E] | %7
 [A,E]2 [A,E]>[A,E] [E,E]2 [E,B,][G,,B,] | [B,,B,]2 [B,,B,]>[B,,A,] [E,G,]3 [E,B,] | %9
 [E,B,]2 [E,B,]>[E,B,] [E,B,]3 [G,E] | [A,E]2 [A,C]>[A,E] [E,E]3 [E,E] | %11
 [A,E]2 [A,E]>[A,E] [A,E]3 [A,E] | [E,E]2 [E,E]>[E,B,] [E,E]3 [E,E] | %13
 [E,B,][E,B,] [E,B,]2 [E,B,]2 [G,,B,][G,,B,] | [A,,A,][B,,A,] [C,A,]2 [E,G,]3 [E,E] | %15
 [A,E]2 [A,E]>[A,E] [E,E] [E,E]2 [E,B,] | [B,,G,][B,,F,] [B,,A,]2 [E,G,]4 |] %17

